Hatter-kde/actions/22/tool_elliptical_selection.svg

<?xml version="1.0" encoding="UTF-8"?>
<svg viewBox="0 0 22 22" xmlns="http://www.w3.org/2000/svg">
 <defs id="defs3051">
  <style id="current-color-scheme" type="text/css">.ColorScheme-Text {
        color:#363636;
      }
      .ColorScheme-Highlight {
        color:#3daee9;
      }</style>
 </defs>
 <path class="ColorScheme-Text" d="m2 3v2h2v-2h-2zm9 0a9 8 0 0 0-9 8 9 8 0 0 0 9 8 9 8 0 0 0 9-8 9 8 0 0 0-9-8zm7 0v2h2v-2h-2zm-7 1a8 7 0 0 1 8 7 8 7 0 0 1-8 7 8 7 0 0 1-8-7 8 7 0 0 1 8-7zm-9 13v2h2v-2h-2zm16 0v2h2v-2h-2z" fill="currentColor"/>
</svg>

<svg xmlns="http://www.w3.org/2000/svg" viewBox="0 0 22 22">
  <defs id="defs3051">
    <style type="text/css" id="current-color-scheme">
      .ColorScheme-Text {
        color:#363636;
      }
      .ColorScheme-Highlight {
        color:#3daee9;
      }
      </style>
  </defs>
 <path 
     style="fill:currentColor;fill-opacity:1;stroke:none" 
     d="M 2 3 L 2 5 L 4 5 L 4 3 L 2 3 z M 11 3 A 8.9999981 7.9999852 0 0 0 2 11 A 8.9999981 7.9999852 0 0 0 11 19 A 8.9999981 7.9999852 0 0 0 20 11 A 8.9999981 7.9999852 0 0 0 11 3 z M 18 3 L 18 5 L 20 5 L 20 3 L 18 3 z M 11 4 A 8 7 0 0 1 19 11 A 8 7 0 0 1 11 18 A 8 7 0 0 1 3 11 A 8 7 0 0 1 11 4 z M 2 17 L 2 19 L 4 19 L 4 17 L 2 17 z M 18 17 L 18 19 L 20 19 L 20 17 L 18 17 z "
     class="ColorScheme-Text"
     />
</svg>
